src/pug/_include/following.svg

<svg width="20" height="18" viewBox="0 0 20 18" fill="none">
<path d="M9.17061 3.04707C9.35646 3.32297 9.66733 3.48839 9.99998 3.48839C10.3326 3.4884 10.6435 3.32298 10.8294 3.04709C11.6909 1.76814 13.0023 1 14.4251 1C16.8333 1 19.0001 3.26936 19 6.35124C19 7.27156 18.5621 8.3987 17.7481 9.64356C16.9472 10.8684 15.8514 12.1027 14.6996 13.2126C13.5506 14.3198 12.371 15.2791 11.4237 15.9561C10.9488 16.2955 10.5454 16.5546 10.2427 16.724C10.1459 16.7781 10.0656 16.8196 10.0015 16.8502C9.93749 16.8193 9.85744 16.7776 9.7608 16.723C9.45803 16.552 9.05448 16.2905 8.57934 15.9483C7.63163 15.2656 6.45146 14.2993 5.30182 13.1872C4.14933 12.0723 3.05273 10.835 2.25127 9.61245C1.43573 8.36838 1 7.25125 1 6.35126C1 3.26934 3.16676 1 5.57487 1C6.99773 1 8.30913 1.76815 9.17061 3.04707ZM9.85246 16.9122C9.85255 16.9121 9.8556 16.9111 9.86137 16.9096C9.85525 16.9116 9.85237 16.9124 9.85246 16.9122ZM10.1412 16.9101C10.1472 16.9117 10.1504 16.9127 10.1505 16.9129C10.1506 16.913 10.1476 16.9122 10.1412 16.9101Z" stroke="#4E5B67" stroke-width="2" stroke-linejoin="round"/>
</svg>

<svg xmlns="http://www.w3.org/2000/svg" width="20" height="18" fill="none"><path d="M9.17 3.047a1 1 0 0 0 1.659 0C11.69 1.768 13.002 1 14.425 1 16.833 1 19 3.27 19 6.35c0 .92-.438 2.047-1.252 3.292-.8 1.225-1.897 2.46-3.05 3.57s-2.33 2.066-3.276 2.743l-1.18.768-.24.126-.24-.127c-.303-.17-.706-.432-1.18-.775-.948-.683-2.128-1.65-3.278-2.76s-2.25-2.352-3.05-3.575C1.436 8.368 1 7.25 1 6.35 1 3.27 3.167 1 5.575 1c1.423 0 2.734.768 3.596 2.047zm.682 13.865zm.29-.002z" stroke="#4e5b67" stroke-width="2" stroke-linejoin="round"/></svg>
